svgs/thin/rectangle-history.svg

<svg xmlns="http://www.w3.org/2000/svg" viewBox="0 0 512 512"><!--! Font Awesome Pro 6.3.0 by @fontawesome - https://fontawesome.com License - https://fontawesome.com/license (Commercial License) Copyright 2023 Fonticons, Inc. --><path d="M448 128C483.3 128 512 156.7 512 192V448C512 483.3 483.3 512 448 512H64C28.65 512 0 483.3 0 448V192C0 156.7 28.65 128 64 128H448zM448 144H64C37.49 144 16 165.5 16 192V448C16 474.5 37.49 496 64 496H448C474.5 496 496 474.5 496 448V192C496 165.5 474.5 144 448 144zM456 64C460.4 64 464 67.58 464 72C464 76.42 460.4 80 456 80H56C51.58 80 48 76.42 48 72C48 67.58 51.58 64 56 64H456zM408 0C412.4 0 416 3.582 416 8C416 12.42 412.4 16 408 16H104C99.58 16 96 12.42 96 8C96 3.582 99.58 0 104 0H408z"/></svg>

<svg xmlns="http://www.w3.org/2000/svg" viewBox="0 0 512 512"><!--! Font Awesome Pro 6.4.0 by @fontawesome - https://fontawesome.com License - https://fontawesome.com/license (Commercial License) Copyright 2023 Fonticons, Inc. --><path d="M496 192c0-26.5-21.5-48-48-48L64 144c-26.5 0-48 21.5-48 48l0 256c0 26.5 21.5 48 48 48l384 0c26.5 0 48-21.5 48-48l0-256zm-48-64c35.3 0 64 28.7 64 64l0 256c0 35.3-28.7 64-64 64L64 512c-35.3 0-64-28.7-64-64L0 192c0-35.3 28.7-64 64-64l384 0zm8-64c4.4 0 8 3.6 8 8s-3.6 8-8 8L56 80c-4.4 0-8-3.6-8-8s3.6-8 8-8l400 0zM408 0c4.4 0 8 3.6 8 8s-3.6 8-8 8L104 16c-4.4 0-8-3.6-8-8s3.6-8 8-8L408 0z"/></svg>
